assets/base/img/common/icon_twitter-circle.svg

<svg width="54" height="54" viewBox="0 0 54 54" fill="none" xmlns="http://www.w3.org/2000/svg">
<rect width="54" height="54" rx="27" fill="#1DA1F2"/>
<path d="M23.7655 34.8532C30.6837 34.8532 34.4677 29.1383 34.4677 24.1823C34.4677 24.02 34.4677 23.8584 34.4567 23.6976C35.1929 23.1667 35.8283 22.5093 36.3333 21.7563C35.6468 22.0596 34.9186 22.2585 34.1729 22.3463C34.9581 21.8776 35.5458 21.1405 35.8266 20.272C35.0883 20.7088 34.2805 21.0167 33.4381 21.1823C32.2722 19.9462 30.4195 19.6436 28.919 20.4443C27.4185 21.245 26.6433 22.9498 27.0281 24.6028C24.0037 24.4516 21.1859 23.0273 19.276 20.6844C18.2777 22.398 18.7876 24.5902 20.4405 25.6907C19.8419 25.6731 19.2564 25.5121 18.7333 25.2213C18.7333 25.2367 18.7333 25.2528 18.7333 25.2689C18.7338 27.0541 19.996 28.5917 21.751 28.9452C21.1972 29.0958 20.6162 29.1178 20.0526 29.0096C20.5454 30.5373 21.9575 31.5839 23.5667 31.614C22.2348 32.6577 20.5894 33.2243 18.8954 33.2226C18.5961 33.2221 18.2971 33.204 18 33.1685C19.7201 34.2691 21.7216 34.853 23.7655 34.8502" fill="white"/>
</svg>

<svg width="54" height="54" fill="none" xmlns="http://www.w3.org/2000/svg"><rect width="54" height="54" rx="27" fill="#1DA1F2"/><path d="M23.765 34.853c6.919 0 10.703-5.715 10.703-10.67 0-.163 0-.325-.011-.485a7.64 7.64 0 001.876-1.942 7.523 7.523 0 01-2.16.59 3.765 3.765 0 001.654-2.074 7.552 7.552 0 01-2.389.91 3.773 3.773 0 00-4.519-.738 3.75 3.75 0 00-1.89 4.159 10.69 10.69 0 01-7.753-3.919 3.746 3.746 0 001.165 5.007 3.74 3.74 0 01-1.708-.47v.048a3.754 3.754 0 003.018 3.676 3.767 3.767 0 01-1.698.065 3.764 3.764 0 003.514 2.604A7.562 7.562 0 0118 33.169a10.671 10.671 0 005.765 1.681" fill="#fff"/></svg>
